!!!PDT:	1923
!!!LANG: Non-Tone
!!!LING_GROUP: Siouan
!!!REG: Dakotas
!!!COM: Anon.
!!!OTL: The Sioux Come
!!!ODT: <1918//
!!!MPN: Kekanatka [Crow's Heart]
!!!MLC: Fort Berthold Reservation, North Dakota, United States of America
!! Song was recorded during either the summer of 1912, 1915, or 1918.
!!!AGN: monody
!!!SOCIAL_FUNCTION: Mandan and Hidatsa War Songs
!!!AMT: irregular
!!!RWG: Transcribed pitches, durations, and meters are only approximate.
!! Drum not recorded.
**kern
*ICvox
*Imale
*clefG2
*k[b-e-a-d-g-c-]
*M2/4
*MM72
=1-
8e-
8g-
16g-
8.g-
=2
(16a-
16g-)
8a-
8g-
8g-
=3
8e-
16.a-
32g-
8g-
(16g-
16e-)
=4
8g-
16e-
16d-
8d-
8d-
=5
8B-
8e-
16c-
8.d-
=6
8e-
8d-
8B-
8G-
=7
16B-
8.B-
8c-
8B-
=8
16G-
8.G-
8G-
8G-
=9
4G-
4r
==
*-
!!!CNT: Mandan
!!!TXO: Mandan
!!!OCY: United States
!!!OCL: Frances Densmore
!!!YOR: Frances Densmore, "Mandan and Hidatsa Music",
!!!YOR: Bulletin 80, page 167, No. 98
!!!PPR: Smithsonian Institution, Bureau of American Ethnology
!!!PPR: Government Printing Office
!!!PDT: 1923
!!!PPP: Washington, DC, United States of America
!!!YEC: Electronic Copyright 2000 David Huron
!!!YER: August 2000
!!!YEN: United States of America
!!!ENC: David Huron
!!!RDT: August 18, 2000
!!!EEV: Release 1.0
!!!AIN: tom, vox
